src/images/social/blog.svg

<svg height="100" viewBox="0 0 100 100" width="100" xmlns="http://www.w3.org/2000/svg"><path d="m49.9986667 0c-27.613 0-49.99833337 22.387-49.99833337 49.999s22.38533337 50.001 49.99833337 50.001 50.001-22.3876667 50.001-50.001-22.388-49.999-50.001-49.999zm23.7686666 35.9816667-4.749 4.749-9.667-9.6663334-3.6673333 3.6673334 9.667 9.667-23.7106667 23.7086666-9.6663333-9.6653333-3.6673333 3.6673333 9.6663333 9.6663334-2.3626667 2.3626666-.045-.045c-.262.4313334-.688.746-1.194.8583334l-9.0143333 2.01c-.135.0303333-.2723333.045-.408.045-.492 0-.97-.1936667-1.3243333-.549-.4546667-.453-.644-1.1073334-.504-1.7343334l2.009-9.0116666c.1133333-.5056667.4286666-.9326667.8593333-1.194l-.0456667-.0456667 38.1566667-38.1583333c.5593333-.5583334 1.468-.5583334 2.0273333.0016666l7.6406667 7.639c.5593333.5593334.5593333 1.468-.0006667 2.0273334z" fill="#1b1b1b"/></svg>

<?xml version="1.0" encoding="UTF-8"?>
<svg width="100px" height="100px" viewBox="0 0 100 100" version="1.1" xmlns="http://www.w3.org/2000/svg" xmlns:xlink="http://www.w3.org/1999/xlink">
    <!-- Generator: Sketch 55.1 (78136) - https://sketchapp.com -->
    <title>blog</title>
    <desc>Created with Sketch.</desc>
    <g id="blog" stroke="none" stroke-width="1" fill="none" fill-rule="evenodd">
        <path d="M49.9986667,0 C22.3856667,0 0.000333333333,22.387 0.000333333333,49.999 C0.000333333333,77.611 22.3856667,100 49.9986667,100 C77.6116667,100 99.9996667,77.6123333 99.9996667,49.999 C99.9996667,22.3856667 77.6116667,0 49.9986667,0 Z M73.7673333,35.9816667 L69.0183333,40.7306667 L59.3513333,31.0643333 L55.684,34.7316667 L65.351,44.3986667 L41.6403333,68.1073333 L31.974,58.442 L28.3066667,62.1093333 L37.973,71.7756667 L35.6103333,74.1383333 L35.5653333,74.0933333 C35.3033333,74.5246667 34.8773333,74.8393333 34.3713333,74.9516667 L25.357,76.9616667 C25.222,76.992 25.0846667,77.0066667 24.949,77.0066667 C24.457,77.0066667 23.979,76.813 23.6246667,76.4576667 C23.17,76.0046667 22.9806667,75.3503333 23.1206667,74.7233333 L25.1296667,65.7116667 C25.243,65.206 25.5583333,64.779 25.989,64.5176667 L25.9433333,64.472 L64.1,26.3136667 C64.6593333,25.7553333 65.568,25.7553333 66.1273333,26.3153333 L73.768,33.9543333 C74.3273333,34.5136667 74.3273333,35.4223333 73.7673333,35.9816667 Z" id="Shape" fill="#1B1B1B" fill-rule="nonzero"></path>
    </g>
</svg>
